X:1
T:Union Station, LMD
T:Union Station, LMD
T:Joseph Emerson Sweetser, 1871
T:Public Domain Courtesy of the Cyber Hymnal™
C:Joseph Emerson Sweetser, 1871
Z:Public Domain
Z:Courtesy of the Cyber Hymnal™
%%score ( 1 2 ) ( 3 4 )
L:1/8
Q:1/4=85
M:3/4
K:Eb
V:1 treble 
V:2 treble 
V:3 bass 
V:4 bass 
V:1
 G2 | G>^F G>G A>A | G4 E2 | D>E FA CD | E4 G2 | G>^F G>G A>A | G4 G2 | F>F FF EF | D4 ([DF][EG]) | %9
 [FA]>[FA] [FA][FA] [FA][FA] | [FG]4 [FG]2 | [Ec]>[Ec] [Ec][Ec] [^Fc][Fd] | [Gd]4 (cB) | %13
 [Ge]3 [GB] [Bd][Ac] | [Ac]>[GB] [GB]2 (GB) | [EB]>[EA] [EA]2 ([EG][B,E]) | [B,F]>[B,E] [B,E]2 |] %17
V:2
 x2 | x6 | x6 | x6 | x6 | x6 | x6 | x6 | x6 | x6 | x6 | x6 | x4 A2 | x6 | x4 E2 | x6 | x4 |] %17
V:3
 B,2 | B,>=A, B,>E C>C | B,4 G,2 | F,>G, A,C A,B, | G,4 B,2 | B,>=A, B,>E C>C | B,4 (B,C) | %7
 D>D DD C=A, | B,4 B,2 | B,>B, B,C DC | =B,4 [G,B,]2 | [C,C]>[C,C] [C,C][C,C] [A,E][A,C] | %12
 [G,=B,]4 [_B,D]2 | [E,E]3 [E,B,] [A,,D][A,,C] | [E,C]>[E,B,] [E,B,]2 (E_D) | %15
 [A,,C]>[A,,C] [A,,C]2 (B,G,) | [B,,A,]>[E,G,] [E,G,]2 |] %17
V:4
 x2 | x6 | x6 | x6 | x6 | x6 | x6 | x6 | x6 | x6 | x6 | x6 | x6 | x6 | x4 E,2 | x4 B,,2 | x4 |] %17

